src/pos-icons/segment.svg

<svg height="24" viewBox="0 0 24 24" width="24" xmlns="http://www.w3.org/2000/svg"><path d="m21 8h-18v-2h18m-12 7h12v-2h-12m0 7h12v-2h-12"/></svg>

<?xml version="1.0" encoding="UTF-8"?><!DOCTYPE svg PUBLIC "-//W3C//DTD SVG 1.1//EN" "http://www.w3.org/Graphics/SVG/1.1/DTD/svg11.dtd"><svg xmlns="http://www.w3.org/2000/svg" xmlns:xlink="http://www.w3.org/1999/xlink" version="1.1" id="mdi-segment" width="24" height="24" viewBox="0 0 24 24"><path d="M21,8H3V6H21M9,13H21V11H9M9,18H21V16H9" /></svg>
